data/tilesets/flags/mozambique.svg

<?xml version="1.0" encoding="UTF-8" standalone="no"?>
<svg
   xmlns:dc="http://purl.org/dc/elements/1.1/"
   xmlns:cc="http://creativecommons.org/ns#"
   xmlns:rdf="http://www.w3.org/1999/02/22-rdf-syntax-ns#"
   xmlns:svg="http://www.w3.org/2000/svg"
   xmlns="http://www.w3.org/2000/svg"
   xmlns:sodipodi="http://sodipodi.sourceforge.net/DTD/sodipodi-0.dtd"
   xmlns:inkscape="http://www.inkscape.org/namespaces/inkscape"
   height="131.25002mm"
   id="svg912"
   sodipodi:docname="mozambique.svg"
   sodipodi:version="0.32"
   width="196.875mm"
   inkscape:version="1.0.2 (e86c870879, 2021-01-15)"
   inkscape:output_extension="org.inkscape.output.svg.inkscape"
   version="1.1">
  <defs
     id="defs20" />
  <sodipodi:namedview
     pagecolor="#ffffff"
     bordercolor="#666666"
     borderopacity="1"
     objecttolerance="10"
     gridtolerance="10"
     guidetolerance="10"
     inkscape:pageopacity="0"
     inkscape:pageshadow="2"
     inkscape:window-width="1209"
     inkscape:window-height="922"
     id="namedview18"
     showgrid="false"
     inkscape:zoom="1.1439136"
     inkscape:cx="396.85039"
     inkscape:cy="264.56701"
     inkscape:window-x="533"
     inkscape:window-y="106"
     inkscape:window-maximized="0"
     inkscape:current-layer="svg912" />
  <metadata
     id="metadata3">
    <rdf:RDF>
      <cc:Work
         rdf:about="">
        <dc:title>Flag of Mozambique</dc:title>
        <dc:description />
        <dc:subject>
          <rdf:Bag>
            <rdf:li>united_nations_member</rdf:li>
            <rdf:li>flag</rdf:li>
            <rdf:li>africa</rdf:li>
            <rdf:li>sign</rdf:li>
            <rdf:li>Mozambique</rdf:li>
          </rdf:Bag>
        </dc:subject>
        <dc:publisher>
          <cc:Agent
             rdf:about="http://www.openclipart.org">
            <dc:title>Tobias Jakobs</dc:title>
          </cc:Agent>
        </dc:publisher>
        <dc:creator>
          <cc:Agent>
            <dc:title>Tobias Jakobs</dc:title>
          </cc:Agent>
        </dc:creator>
        <dc:rights>
          <cc:Agent>
            <dc:title>Tobias Jakobs</dc:title>
          </cc:Agent>
        </dc:rights>
        <dc:date />
        <dc:format>image/svg+xml</dc:format>
        <dc:type
           rdf:resource="http://purl.org/dc/dcmitype/StillImage" />
        <cc:license
           rdf:resource="http://web.resource.org/cc/PublicDomain" />
        <dc:language>en</dc:language>
      </cc:Work>
      <cc:License
         rdf:about="http://web.resource.org/cc/PublicDomain">
        <cc:permits
           rdf:resource="http://web.resource.org/cc/Reproduction" />
        <cc:permits
           rdf:resource="http://web.resource.org/cc/Distribution" />
        <cc:permits
           rdf:resource="http://web.resource.org/cc/DerivativeWorks" />
      </cc:License>
    </rdf:RDF>
  </metadata>
  <rect
     height="155.01968"
     id="rect937"
     style="fill:#007168;fill-opacity:1;fill-rule:evenodd;stroke-width:1pt"
     width="744.09448"
     x="0"
     y="7.6293902e-05" />
  <rect
     height="15.519679"
     id="rect935"
     style="fill:#ffffff;fill-opacity:1;fill-rule:evenodd;stroke-width:1pt"
     width="744.09448"
     y="154.98431"
     x="0" />
  <rect
     height="155.01968"
     id="rect934"
     style="fill:#000000;fill-opacity:1;fill-rule:evenodd;stroke-width:1pt"
     width="744.09448"
     y="170.504"
     x="0" />
  <rect
     height="15.519679"
     id="rect933"
     style="fill:#ffffff;fill-opacity:1;fill-rule:evenodd;stroke-width:1pt"
     width="744.09448"
     y="325.52362"
     x="0" />
  <rect
     height="155.01968"
     id="rect931"
     style="fill:#fce100;fill-opacity:1;fill-rule:evenodd;stroke-width:1pt"
     width="744.09448"
     y="341.04333"
     x="0" />
  <path
     d="m 0,0 v 496.06308 l 325.559,-248.032 z"
     id="path932"
     sodipodi:nodetypes="cccc"
     style="fill:#d21034;fill-opacity:1;fill-rule:evenodd;stroke-width:1pt" />
  <g
     id="g3169"
     transform="translate(0,7.62939e-5)">
    <polygon
       id="polygon916"
       points="189.546,214.569 128.786,171.996 69.9305,217.071 91.6433,146.128 30.5878,104.083 104.767,102.81 125.888,31.7503 150.021,101.906 224.13,100.034 164.865,144.665 189.546,214.569"
       sodipodi:arg1="0.92156446"
       sodipodi:arg2="1.5508169"
       sodipodi:cx="128.01648"
       sodipodi:cy="133.50133"
       sodipodi:r1="101.77328"
       sodipodi:r2="38.502586"
       sodipodi:sides="5"
       sodipodi:type="star"
       style="fill:#fce100;fill-opacity:1;fill-rule:evenodd;stroke-width:1pt"
       transform="matrix(0.828977,0.0172526,-0.0172526,0.828977,38.9213,141.461)"
       inkscape:flatsided="false"
       inkscape:rounded="0"
       inkscape:randomized="0"
       d="m 189.54603,214.56867 -60.76034,-42.57244 -58.855159,45.07437 21.71282,-70.94213 -61.055514,-42.04584 74.179603,-1.2722 21.12078,-71.060124 24.13269,70.155864 74.10887,-1.87174 -59.26477,44.63092 z" />
    <path
       d="m 99.635768,281.85492 h 35.755772 c 2.87695,3.22739 9.29582,4.54364 15.40956,-0.0385 11.20696,-6.13682 32.88839,0.0385 32.88839,0.0385 l 4.26927,-4.53595 -10.40694,-34.15506 -3.73594,-4.00261 c 0,0 -8.00436,-4.80261 -23.21478,-3.20174 -15.20956,1.60087 -20.54637,-0.53334 -20.54637,-0.53334 0,0 -13.34143,1.60087 -17.07719,3.46841 -0.41069,0.33248 -4.26937,4.26928 -4.26937,4.26928 z"
       id="path919"
       sodipodi:nodetypes="cccccccccccc"
       style="fill:#ffffff;fill-opacity:1;fill-rule:evenodd;stroke:#000000;stroke-width:1.06839;stroke-linecap:round;stroke-linejoin:round;stroke-dasharray:none;stroke-opacity:1" />
    <path
       d="m 106.84038,273.0497 c 0,0 34.15463,-4.26928 44.02824,8.80522 -5.57612,3.81543 -10.48558,4.12996 -15.74375,0.26752 0.83761,-1.39574 12.27449,-13.34202 41.35941,-9.33941"
       id="path918"
       sodipodi:nodetypes="cccc"
       style="fill:none;fill-opacity:1;fill-rule:evenodd;stroke:#000000;stroke-width:1.06839;stroke-linecap:round;stroke-linejoin:round;stroke-dasharray:none;stroke-opacity:1" />
    <path
       d="m 143.39675,238.89463 -0.26667,37.62434"
       id="path920"
       style="fill:none;fill-opacity:1;fill-rule:evenodd;stroke:#000000;stroke-width:0.85471pt;stroke-linecap:butt;stroke-linejoin:miter;stroke-opacity:1" />
    <path
       d="m 173.81588,239.42797 6.40434,29.88579"
       id="path921"
       style="fill:none;fill-opacity:1;fill-rule:evenodd;stroke:#000000;stroke-width:0.85471pt;stroke-linecap:butt;stroke-linejoin:miter;stroke-opacity:1" />
    <path
       d="m 113.32968,238.95873 -3.55414,15.41214"
       id="path922"
       sodipodi:nodetypes="cc"
       style="fill:none;fill-opacity:1;fill-rule:evenodd;stroke:#000000;stroke-width:1.06839;stroke-linecap:round;stroke-linejoin:round;stroke-dasharray:none;stroke-opacity:1" />
    <path
       d="m 76.41287,285.95155 8.408808,9.85908 c 0.987447,0.58889 1.86455,0.55128 2.741654,0 l 12.462098,-14.95401 5.23407,-6.48041 c 0.81044,-0.95984 1.06916,-2.03079 0.99694,-2.99063 l 10.00643,-8.89155 c 0.81856,0.0564 1.30608,0.14872 2.12464,0.20428 -0.96711,-0.25044 -1.67669,-0.72138 -0.91523,-1.78122 l 2.24302,-1.74446 1.74446,2.24276 c 0,0 -2.49199,3.2402 -2.74122,3.2402 -0.24924,0 -2.74166,0 -2.74166,0 l -5.23407,4.73595 2.28806,2.02224 3.44448,9.44284 4.2374,-2.99149 -2.742,-9.71976 5.9822,-6.48041 -2.24361,-3.48978 1.49574,-1.99404 c 0,0 20.70279,13.03433 28.67894,9.5454 0.21539,0.0778 0.48206,-9.29582 0.48206,-9.29582 0,0 -21.43442,-2.24276 -21.93357,-6.48041 -0.4983,-4.2368 4.73595,-4.7351 4.73595,-4.7351 l -2.24362,-3.2402 0.49915,-1.74532 3.7385,4.73595 8.47445,-7.22829 49.84755,56.82711 c 2.72139,-1.10343 3.3026,-1.76925 3.48978,-4.48637 -0.0701,-0.0684 -48.85095,-56.07924 -48.85095,-56.07924 l 3.7385,-3.98722 c 0.73676,-0.83078 0.99574,-1.18377 0.99659,-2.49319 l 5.73254,-4.9845 c 1.72395,0.59223 2.82311,1.62549 3.7385,2.99046 l 15.76,-13.35646 c 0.41539,0.41538 1.67694,0.83077 2.53336,0.36359 l 26.05583,-25.00993 -28.39774,20.05782 -0.99659,-0.7477 c 0,-0.83086 1.02993,-1.03633 0,-2.49242 -1.10343,-1.32403 -2.74191,1.24626 -2.99063,1.24626 -0.24957,0 -4.1103,-1.36446 -4.95646,-3.09303 l -0.27778,4.58843 -7.22828,6.72956 -5.48297,-0.24924 -7.97615,7.72641 -0.99659,2.99055 1.24616,2.49318 c 0,0 -4.23765,3.73851 -4.23765,3.48893 0,-0.24872 -0.85642,-1.10172 -0.89317,-1.21198 l 3.63508,-3.27439 0.4983,-2.24302 -1.21284,-1.89386 c -0.36752,0.26709 -5.018,5.13432 -5.26757,4.63517 -0.41539,-0.46496 -13.45827,-15.20341 -13.45827,-15.20341 l 0.74702,-2.74165 -8.4736,-9.22198 c -3.08935,-1.06659 -7.97598,-1.24617 -8.97291,5.48331 -0.77634,1.58061 -7.22803,0.24923 -7.22803,0.24923 l -3.48935,0.74779 -19.690128,27.915 10.966613,13.20954 22.431775,-28.4133 0.66591,-8.04931 4.70672,5.2627 c 1.56924,0.20163 3.06413,0.21932 4.48637,-0.49846 l 13.28988,14.83409 -2.21284,2.15899 c 0.74787,0.83078 1.26241,1.36156 2.01028,2.19234 0.74787,-0.4983 1.46155,-1.0966 2.20942,-1.59575 0.24958,0.33334 0.66497,0.96497 0.91454,1.29745 -1.11368,0.60599 -1.89489,1.41284 -3.00858,2.01883 -1.78207,-1.16155 -3.5026,-2.60772 -3.37183,-4.90946 l -7.477,6.23084 -0.24958,1.24617 -22.1822,18.44378 -1.99395,0.24958 -0.49847,5.73254 14.45597,-11.96338 v -1.74532 l 1.49548,1.24617 11.21551,-8.97189 c 0,0 0.74787,0.99659 0.49915,0.99659 -0.24958,0 -9.97019,8.97275 -9.97019,8.97275 l -0.24872,0.99659 -1.74498,1.49574 -0.99702,-0.74787 -13.45903,11.96338 h -1.99387 l -7.477259,7.47785 c -1.928568,0.16753 -3.599697,0.3718 -5.234073,1.49489 z"
       id="path917"
       sodipodi:nodetypes="cccccccccccccccccccccccccccccccccccccccccccccccccccccccccccccccccccccccccccccccccccccccccccccc"
       style="fill:#000000;fill-opacity:1;fill-rule:evenodd;stroke:#000000;stroke-width:1.06839;stroke-linecap:round;stroke-linejoin:round;stroke-dasharray:none;stroke-opacity:1" />
  </g>
</svg>

<?xml version="1.0" encoding="UTF-8" standalone="no"?>
<!-- Created with Sodipodi ("http://www.sodipodi.com/") -->
<svg xmlns:dc="http://purl.org/dc/elements/1.1/" xmlns:cc="http://creativecommons.org/ns#" xmlns:rdf="http://www.w3.org/1999/02/22-rdf-syntax-ns#" xmlns:svg="http://www.w3.org/2000/svg" xmlns="http://www.w3.org/2000/svg" xmlns:sodipodi="http://sodipodi.sourceforge.net/DTD/sodipodi-0.dtd" xmlns:inkscape="http://www.inkscape.org/namespaces/inkscape" height="140mm" id="svg912" sodipodi:docbase="/home/tobias/Desktop/Flags" sodipodi:docname="mozambique.svg" sodipodi:version="0.32" width="210mm" inkscape:version="0.46" inkscape:output_extension="org.inkscape.output.svg.inkscape">
  <metadata id="metadata3">
    <rdf:RDF>
      <cc:Work rdf:about="">
        <dc:title>Flag of Mozambique</dc:title>
        <dc:description/>
        <dc:subject>
          <rdf:Bag>
            <rdf:li>united_nations_member</rdf:li>
            <rdf:li>flag</rdf:li>
            <rdf:li>africa</rdf:li>
            <rdf:li>sign</rdf:li>
            <rdf:li>Mozambique</rdf:li>
          </rdf:Bag>
        </dc:subject>
        <dc:publisher>
          <cc:Agent rdf:about="http://www.openclipart.org">
            <dc:title>Tobias Jakobs</dc:title>
          </cc:Agent>
        </dc:publisher>
        <dc:creator>
          <cc:Agent>
            <dc:title>Tobias Jakobs</dc:title>
          </cc:Agent>
        </dc:creator>
        <dc:rights>
          <cc:Agent>
            <dc:title>Tobias Jakobs</dc:title>
          </cc:Agent>
        </dc:rights>
        <dc:date/>
        <dc:format>image/svg+xml</dc:format>
        <dc:type rdf:resource="http://purl.org/dc/dcmitype/StillImage"/>
        <cc:license rdf:resource="http://web.resource.org/cc/PublicDomain"/>
        <dc:language>en</dc:language>
      </cc:Work>
      <cc:License rdf:about="http://web.resource.org/cc/PublicDomain">
        <cc:permits rdf:resource="http://web.resource.org/cc/Reproduction"/>
        <cc:permits rdf:resource="http://web.resource.org/cc/Distribution"/>
        <cc:permits rdf:resource="http://web.resource.org/cc/DerivativeWorks"/>
      </cc:License>
    </rdf:RDF>
  </metadata>
  <rect height="155.019684" id="rect937" style="fill: rgb(0, 113, 104); fill-rule: evenodd; stroke-width: 1pt; fill-opacity: 1;" width="744.094482"/>
  <rect height="15.519679" id="rect935" style="fill: rgb(255, 255, 255); fill-rule: evenodd; stroke-width: 1pt; fill-opacity: 1;" width="744.094482" y="154.984245"/>
  <rect height="155.019684" id="rect934" style="fill: rgb(0, 0, 0); fill-rule: evenodd; stroke-width: 1pt; fill-opacity: 1;" width="744.094482" y="170.503922"/>
  <rect height="15.519679" id="rect933" style="fill: rgb(255, 255, 255); fill-rule: evenodd; stroke-width: 1pt; fill-opacity: 1;" width="744.094482" y="325.523573"/>
  <rect height="155.019684" id="rect931" style="fill: rgb(252, 225, 0); fill-rule: evenodd; stroke-width: 1pt; fill-opacity: 1;" width="744.094482" y="341.043282"/>
  <path d="M 0 -7.62939e-05 L 0 496.063 L 325.559 248.031 L 0 -7.62939e-05 z " id="path932" sodipodi:nodetypes="cccc" style="fill: rgb(210, 16, 52); fill-rule: evenodd; stroke-width: 1pt; fill-opacity: 1;"/>
  <g id="g3169">
    <polygon id="polygon916" points="189.546,214.569 128.786,171.996 69.9305,217.071 91.6433,146.128 30.5878,104.083 104.767,102.81 125.888,31.7503 150.021,101.906 224.13,100.034 164.865,144.665 189.546,214.569" sodipodi:arg1="0.92156446" sodipodi:arg2="1.5508169" sodipodi:cx="128.01648" sodipodi:cy="133.50133" sodipodi:r1="101.77328" sodipodi:r2="38.502586" sodipodi:sides="5" sodipodi:type="star" style="fill: rgb(252, 225, 0); fill-opacity: 1; fill-rule: evenodd; stroke-width: 1pt;" transform="matrix(0.828977, 0.0172526, -0.0172526, 0.828977, 38.9213, 141.461)" inkscape:flatsided="false" inkscape:rounded="0" inkscape:randomized="0" d="M 189.54603,214.56867 L 128.78569,171.99623 L 69.930531,217.0706 L 91.643351,146.12847 L 30.587837,104.08263 L 104.76744,102.81043 L 125.88822,31.750306 L 150.02091,101.90617 L 224.12978,100.03443 L 164.86501,144.66535 L 189.54603,214.56867 z"/>
    <path d="M 99.635768,281.85492 L 135.39154,281.85492 C 138.26849,285.08231 144.68736,286.39856 150.8011,281.81646 C 162.00806,275.67964 183.68949,281.85492 183.68949,281.85492 L 187.95876,277.31897 L 177.55182,243.16391 L 173.81588,239.1613 C 173.81588,239.1613 165.81152,234.35869 150.6011,235.95956 C 135.39154,237.56043 130.05473,235.42622 130.05473,235.42622 C 130.05473,235.42622 116.7133,237.02709 112.97754,238.89463 C 112.56685,239.22711 108.70817,243.16391 108.70817,243.16391 L 99.635768,281.85492 z" id="path919" sodipodi:nodetypes="cccccccccccc" style="fill: rgb(255, 255, 255); fill-opacity: 1; fill-rule: evenodd; stroke: rgb(0, 0, 0); stroke-width: 1.06839; stroke-linecap: round; stroke-linejoin: round; stroke-dasharray: none; stroke-opacity: 1;"/>
    <path d="M 106.84038,273.0497 C 106.84038,273.0497 140.99501,268.78042 150.86862,281.85492 C 145.2925,285.67035 140.38304,285.98488 135.12487,282.12244 C 135.96248,280.7267 147.39936,268.78042 176.48428,272.78303" id="path918" sodipodi:nodetypes="cccc" style="fill: none; fill-opacity: 1; fill-rule: evenodd; stroke: rgb(0, 0, 0); stroke-width: 1.06839; stroke-linecap: round; stroke-linejoin: round; stroke-dasharray: none; stroke-opacity: 1;"/>
    <path d="M 143.39675,238.89463 L 143.13008,276.51897" id="path920" style="fill: none; fill-opacity: 1; fill-rule: evenodd; stroke: rgb(0, 0, 0); stroke-width: 0.85471pt; stroke-linecap: butt; stroke-linejoin: miter; stroke-opacity: 1;"/>
    <path d="M 173.81588,239.42797 L 180.22022,269.31376" id="path921" style="fill: none; fill-opacity: 1; fill-rule: evenodd; stroke: rgb(0, 0, 0); stroke-width: 0.85471pt; stroke-linecap: butt; stroke-linejoin: miter; stroke-opacity: 1;"/>
    <path d="M 113.32968,238.95873 L 109.77554,254.37087" id="path922" sodipodi:nodetypes="cc" style="fill: none; fill-opacity: 1; fill-rule: evenodd; stroke: rgb(0, 0, 0); stroke-width: 1.06839; stroke-linecap: round; stroke-linejoin: round; stroke-dasharray: none; stroke-opacity: 1;"/>
    <path d="M 76.41287,285.95155 L 84.821678,295.81063 C 85.809125,296.39952 86.686228,296.36191 87.563332,295.81063 L 100.02543,280.85662 L 105.2595,274.37621 C 106.06994,273.41637 106.32866,272.34542 106.25644,271.38558 L 116.26287,262.49403 C 117.08143,262.55044 117.56895,262.64275 118.38751,262.69831 C 117.4204,262.44787 116.71082,261.97693 117.47228,260.91709 L 119.7153,259.17263 L 121.45976,261.41539 C 121.45976,261.41539 118.96777,264.65559 118.71854,264.65559 C 118.4693,264.65559 115.97688,264.65559 115.97688,264.65559 L 110.74281,269.39154 L 113.03087,271.41378 L 116.47535,280.85662 L 120.71275,277.86513 L 117.97075,268.14537 L 123.95295,261.66496 L 121.70934,258.17518 L 123.20508,256.18114 C 123.20508,256.18114 143.90787,269.21547 151.88402,265.72654 C 152.09941,265.80432 152.36608,256.43072 152.36608,256.43072 C 152.36608,256.43072 130.93166,254.18796 130.43251,249.95031 C 129.93421,245.71351 135.16846,245.21521 135.16846,245.21521 L 132.92484,241.97501 L 133.42399,240.22969 L 137.16249,244.96564 L 145.63694,237.73735 L 195.48449,294.56446 C 198.20588,293.46103 198.78709,292.79521 198.97427,290.07809 C 198.90418,290.00971 150.12332,233.99885 150.12332,233.99885 L 153.86182,230.01163 C 154.59858,229.18085 154.85756,228.82786 154.85841,227.51844 L 160.59095,222.53394 C 162.3149,223.12617 163.41406,224.15943 164.32945,225.5244 L 180.08945,212.16794 C 180.50484,212.58332 181.76639,212.99871 182.62281,212.53153 L 208.67864,187.5216 L 180.2809,207.57942 L 179.28431,206.83172 C 179.28431,206.00086 180.31424,205.79539 179.28431,204.3393 C 178.18088,203.01527 176.5424,205.58556 176.29368,205.58556 C 176.04411,205.58556 172.18338,204.2211 171.33722,202.49253 L 171.05944,207.08096 L 163.83116,213.81052 L 158.34819,213.56128 L 150.37204,221.28769 L 149.37545,224.27824 L 150.62161,226.77142 C 150.62161,226.77142 146.38396,230.50993 146.38396,230.26035 C 146.38396,230.01163 145.52754,229.15863 145.49079,229.04837 L 149.12587,225.77398 L 149.62417,223.53096 L 148.41133,221.6371 C 148.04381,221.90419 143.39333,226.77142 143.14376,226.27227 C 142.72837,225.80731 129.68549,211.06886 129.68549,211.06886 L 130.43251,208.32721 L 121.95891,199.10523 C 118.86956,198.03864 113.98293,197.85906 112.986,204.58854 C 112.20966,206.16915 105.75797,204.83777 105.75797,204.83777 L 102.26862,205.58556 L 82.578492,233.50056 L 93.545105,246.7101 L 115.97688,218.2968 L 116.64279,210.24749 L 121.34951,215.51019 C 122.91875,215.71182 124.41364,215.72951 125.83588,215.01173 L 139.12576,229.84582 L 136.91292,232.00481 C 137.66079,232.83559 138.17533,233.36637 138.9232,234.19715 C 139.67107,233.69885 140.38475,233.10055 141.13262,232.6014 C 141.3822,232.93474 141.79759,233.56637 142.04716,233.89885 C 140.93348,234.50484 140.15227,235.31169 139.03858,235.91768 C 137.25651,234.75613 135.53598,233.30996 135.66675,231.00822 L 128.18975,237.23906 L 127.94017,238.48523 L 105.75797,256.92901 L 103.76402,257.17859 L 103.26555,262.91113 L 117.72152,250.94775 L 117.72152,249.20243 L 119.217,250.4486 L 130.43251,241.47671 C 130.43251,241.47671 131.18038,242.4733 130.93166,242.4733 C 130.68208,242.4733 120.96147,251.44605 120.96147,251.44605 L 120.71275,252.44264 L 118.96777,253.93838 L 117.97075,253.19051 L 104.51172,265.15389 L 102.51785,265.15389 L 95.040591,272.63174 C 93.112023,272.79927 91.440894,273.00354 89.806518,274.12663 L 76.41287,285.95155 z" id="path917" sodipodi:nodetypes="cccccccccccccccccccccccccccccccccccccccccccccccccccccccccccccccccccccccccccccccccccccccccccccc" style="fill: rgb(0, 0, 0); fill-opacity: 1; fill-rule: evenodd; stroke: rgb(0, 0, 0); stroke-width: 1.06839; stroke-linecap: round; stroke-linejoin: round; stroke-dasharray: none; stroke-opacity: 1;"/>
  </g>
</svg>
